public/code.svg

<svg width="54" height="46" viewBox="0 0 54 46" fill="none" xmlns="http://www.w3.org/2000/svg">
    <path fill-rule="evenodd" clip-rule="evenodd"
        d="M14.4087 11.3211C14.9442 11.8573 15.245 12.584 15.245 13.3417C15.245 14.0995 14.9442 14.8262 14.4087 15.3624L6.89811 22.873L14.4087 30.3836C14.6897 30.6454 14.915 30.9611 15.0713 31.3118C15.2276 31.6626 15.3116 32.0412 15.3184 32.4251C15.3251 32.8091 15.2545 33.1904 15.1107 33.5465C14.9669 33.9025 14.7528 34.2259 14.4813 34.4975C14.2098 34.769 13.8864 34.983 13.5303 35.1268C13.1743 35.2707 12.7929 35.3413 12.409 35.3345C12.0251 35.3277 11.6464 35.2437 11.2957 35.0874C10.9449 34.9311 10.6293 34.7058 10.3675 34.4249L0.836234 24.8936C0.300767 24.3575 0 23.6307 0 22.873C0 22.1153 0.300767 21.3885 0.836234 20.8524L10.3675 11.3211C10.9036 10.7857 11.6304 10.4849 12.3881 10.4849C13.1458 10.4849 13.8726 10.7857 14.4087 11.3211ZM38.9612 11.3211C38.4258 11.8573 38.125 12.584 38.125 13.3417C38.125 14.0995 38.4258 14.8262 38.9612 15.3624L46.4719 22.873L38.9612 30.3836C38.6803 30.6454 38.455 30.9611 38.2987 31.3118C38.1424 31.6626 38.0584 32.0412 38.0516 32.4251C38.0448 32.8091 38.1155 33.1904 38.2593 33.5465C38.4031 33.9025 38.6171 34.2259 38.8887 34.4975C39.1602 34.769 39.4836 34.983 39.8396 35.1268C40.1957 35.2707 40.577 35.3413 40.961 35.3345C41.3449 35.3277 41.7235 35.2437 42.0743 35.0874C42.425 34.9311 42.7407 34.7058 43.0025 34.4249L52.5337 24.8936C53.0692 24.3575 53.37 23.6307 53.37 22.873C53.37 22.1153 53.0692 21.3885 52.5337 20.8524L43.0025 11.3211C42.4664 10.7857 41.7396 10.4849 40.9819 10.4849C40.2241 10.4849 39.4974 10.7857 38.9612 11.3211ZM29.9485 0.0284987C30.6985 0.136126 31.3752 0.537069 31.8298 1.14326C32.2845 1.74945 32.4799 2.51131 32.3732 3.2615L26.6545 43.2928C26.5239 44.022 26.1153 44.6722 25.5149 45.1062C24.9144 45.5402 24.1689 45.7242 23.4355 45.6194C22.7021 45.5146 22.0379 45.1293 21.583 44.5445C21.1281 43.9597 20.9179 43.2212 20.9967 42.4845L26.7155 2.45325C26.8231 1.70319 27.2241 1.02653 27.8302 0.571887C28.4364 0.117245 29.1983 -0.0781947 29.9485 0.0284987Z"
        fill="#9FA6AF" />
</svg>

<svg width="54" height="46" fill="none" xmlns="http://www.w3.org/2000/svg"><path fill-rule="evenodd" clip-rule="evenodd" d="M14.409 11.321a2.86 2.86 0 0 1 0 4.041l-7.51 7.511 7.51 7.51a2.86 2.86 0 1 1-4.042 4.042l-9.53-9.531a2.86 2.86 0 0 1 0-4.042l9.53-9.53a2.86 2.86 0 0 1 4.042 0zm24.552 0a2.86 2.86 0 0 0 0 4.041l7.51 7.511-7.51 7.51a2.86 2.86 0 0 0 2 4.951 2.86 2.86 0 0 0 2.041-.91l9.532-9.53a2.86 2.86 0 0 0 0-4.042l-9.532-9.53a2.86 2.86 0 0 0-4.04 0zM29.95.028a2.86 2.86 0 0 1 2.424 3.233l-5.718 40.032a2.86 2.86 0 0 1-5.658-.809l5.718-40.03A2.86 2.86 0 0 1 29.948.027z" fill="#9FA6AF"/></svg>
